!!!COM: Music21
!!!OTL: Mazurca de Daniel
!!!OMV: pezas_mazurcas_mazurca-de-daniel_mazurca-de-daniel-partitura.musicxml
**kern
*I"Bagpipes
*I'Bag
*clefG^2
*k[]
*M3/4
=1
!LO:TX:a:t=Allegro
*MM132
!LO:TX:a:t=[quarter]=132
2r
8ccL
8ddJ
=||
4ee
8eeL
8ccJ
8eeL
8ccJ
=
4dd
4dd
8ddL
8eeJ
=
4ff
8ffL
8ddJ
8ffL
8ddJ
=
4ee
4cc
8ccL
8ddJ
=
4ee
8eeL
8ccJ
8eeL
8ccJ
=
4dd
4dd
8eeL
8ffJ
=
4gg
8ggL
8ffJ
8eeL
8ddJ
!!linebreak:original
=
2cc
8ccL
8ddJ
=||
4ee
8eeL
8ccJ
8eeL
8ccJ
=
4dd
4dd
8ddL
8eeJ
=
4ff
8ffL
8ddJ
8ffL
8ddJ
=
4ee
4cc
8ccL
8ddJ
=
4ee
8eeL
8ccJ
8eeL
8ccJ
=
4dd
4dd
8eeL
8ffJ
=
4gg
8ggL
8ffJ
8eeL
8ddJ
=
4cc
[2gg
!!linebreak:original
=
4gg]
8cccL
8bbJ
8aaL
8bbJ
=||
4gg
8ccL
8ddJ
8eeL
8ffJ
=
4gg
[2gg
=
4gg]
8cccL
8bbJ
8aaL
8bbJ
=
4gg
8ccL
8ddJ
8eeL
8ffJ
=
8ggL
8ffJ
8eeL
8ddJ
12eeL
12ff
12eeJ
!!linebreak:original
=
4cc
8ccL
8bJ
8ccL
8ddJ
=
8eeL
8ffJ
8ddL
8eeJ
4cc
=
4cc
[2gg
=
4gg]
8cccL
8bbJ
8aaL
8bbJ
=
4gg
8ccL
8ddJ
8eeL
8ffJ
=
4gg
[2gg
=
4gg]
8cccL
8bbJ
8aaL
8bbJ
=
4gg
8ccL
8ddJ
8eeL
8ffJ
!!linebreak:original
=
8ggL
8ffJ
8eeL
8ddJ
12eeL
12ff
12eeJ
=
4cc
8ccL
8bJ
8ccL
8ddJ
=
8eeL
8ffJ
8ddL
8eeJ
4cc
=||
2cc
8ccL
8ddJ
=||
2cc
8ggL
8cccJ
==
*-
